!!! OTL: Berkowitz258
!!! Chapter: 1
!!! Section: II
!!! Page: 60
!!! Mode: 
!!! Encoder: DJB
**kern
*staff1
*I"Piano
=1-
*clefG2
*k[b-e-]
*g:
*M3/4
4r
4d/
4g/
=2
2g/
4f#/
=3
4r
4d/
4cc\
=4
2cc\
4b-\
=5
4r
4b-\
4a/
=6
4g/
4a/
4b-\
=7
4cc\
4dd\
4ee-\
=8
2ee-\
4f/
=9
4r
4f/
4dd\
=10
2dd\
4e-/
=11
4r
4e-/
4cc\
=12
2cc\
4d/
=13
!!linebreak:original
4r
4en/
4f#/
=14
4g/
4a/
4b-\
=15
4cc\
4a/
4dd\
=16
2b-\
4g/
=17
4r
4a/
4dd\
=18
4b-\
4g/
4r
=19
4r
4a/
4dd\
=20
2.dd\
=21
2.g/
==
*-
